brandFactory_export/2.Regular/Pen drive pendrive _2Regular.svg

<?xml version="1.0" encoding="UTF-8"?>
<svg width="24px" height="24px" viewBox="0 0 24 24" version="1.1" xmlns="http://www.w3.org/2000/svg" xmlns:xlink="http://www.w3.org/1999/xlink">
    <title>2.Regular/Pen drive pendrive _2Regular</title>
    <g id="Symbols" stroke="none" stroke-width="1" fill="none" fill-rule="evenodd">
        <g id="2.Regular/Pen-drive-pendrive-_2Regular" fill="#5CB615" fill-rule="nonzero">
            <path d="M6.2302521,10.9159664 C6.89915966,10.9159664 7.33277311,11.2689076 7.33277311,12.0285714 C7.33277311,12.394958 7.23193277,12.6638655 7.05378151,12.8487395 C6.85882353,13.0470588 6.57647059,13.1445378 6.2302521,13.1445378 C5.88403361,13.1445378 5.59831933,13.0470588 5.40672269,12.8487395 C5.22857143,12.6638655 5.12773109,12.394958 5.12773109,12.0285714 C5.12773109,11.2689076 5.56470588,10.9159664 6.2302521,10.9159664 L6.2302521,10.9159664 Z M23.1747899,14.610084 L23.1747899,9.14789916 C23.1680672,8.79831933 22.8991597,8.49915966 22.5630252,8.46890756 L20.7445378,8.46890756 L20.7445378,15.292437 L22.5226891,15.292437 C22.8823529,15.2890756 23.1747899,14.9831933 23.1747899,14.610084 L23.1747899,14.610084 Z M18.287395,17.3226891 C18.8521008,17.3226891 19.3092437,16.8487395 19.3092437,16.2672269 L19.3092437,16.0285714 L19.292437,16.0285714 L19.292437,7.54453782 C19.292437,6.96302521 18.8352941,6.48907563 18.2705882,6.48907563 L7.40336134,6.48907563 C4.12268908,6.59327731 2.4487395,8.41512605 2.4487395,11.897479 C2.4487395,15.3798319 4.12268908,17.205042 7.42689076,17.3226891 L18.287395,17.3226891 L18.287395,17.3226891 Z M22.5058824,6.98991597 C23.6487395,6.98991597 24.6,7.94789916 24.6235294,9.12773109 L24.6235294,14.6067227 C24.6235294,15.7932773 23.6823529,16.7613445 22.5226891,16.7613445 L20.7109244,16.7613445 C20.4857143,17.9176471 19.4840336,18.794958 18.287395,18.794958 L7.40336134,18.794958 C3.26554622,18.6436975 1,16.1932773 1,11.8941176 C1,7.58823529 3.26554622,5.14453782 7.37983193,5.01344538 L18.2705882,5.01344538 C19.4504202,5.01344538 20.4386555,5.86386555 20.6840336,6.99327731 L21.497479,6.99327731 L21.497479,6.98991597 L22.5058824,6.98991597 Z" id="Pen-drive-pendrive-_2Regular"></path>
        </g>
    </g>
</svg>

<svg width="24" height="24" viewBox="0 0 24 24" xmlns="http://www.w3.org/2000/svg"><path d="M6.23 10.916c.67 0 1.103.353 1.103 1.113 0 .366-.101.635-.28.82-.194.198-.477.296-.823.296s-.632-.098-.823-.296c-.178-.185-.28-.454-.28-.82 0-.76.438-1.113 1.103-1.113zm16.945 3.694V9.148a.693.693 0 00-.612-.68h-1.818v6.824h1.778a.673.673 0 00.652-.682zm-4.888 2.713c.565 0 1.022-.474 1.022-1.056v-.238h-.017V7.545c0-.582-.457-1.056-1.021-1.056H7.403c-3.28.104-4.954 1.926-4.954 5.408 0 3.483 1.674 5.308 4.978 5.426h10.86zM22.506 6.99c1.143 0 2.094.958 2.118 2.138v5.479c0 1.186-.942 2.154-2.101 2.154H20.71c-.225 1.157-1.227 2.034-2.424 2.034H7.403C3.266 18.644 1 16.193 1 11.895c0-4.307 2.266-6.75 6.38-6.882h10.89c1.18 0 2.169.85 2.414 1.98h.813V6.99h1.009z" fill="#5CB615" fill-rule="nonzero"/></svg>
